X: 2
T: The Mist On The Mountain
R: jig
M: 6/8
L: 1/8
K: Amin
A3 A3|e2 e e>dB|G3 G3|B>AB A>GA|c3 d3|e>fg B>AG|A>Be d>cB|A3 A3:|e3 e3|d>eg e>dB|G2 G d2 B|e2 e d>cB|A3 c3|e>fg B>AG|A>Be d>cB|A3 A3:|


Tune 256	Setting 12983

